src/icons/solid/symbols/search.svg

<svg width="24" height="24" viewBox="0 0 24 24" fill="none" xmlns="http://www.w3.org/2000/svg">
<g clip-path="url(#clip0_4473_346)">
<path fill-rule="evenodd" clip-rule="evenodd" d="M10.3662 1C15.5337 1 19.7322 5.19905 19.7324 10.3672C19.7324 12.3271 19.1292 14.1483 18.0977 15.6533L22.4893 20.0469C23.1698 20.7275 23.1698 21.8231 22.4893 22.4922C22.1548 22.8266 21.7049 23 21.2666 23C20.8284 22.9999 20.3784 22.8266 20.0439 22.4922L15.6514 18.0996C14.1465 19.1313 12.3259 19.7354 10.3662 19.7354V19.7236C5.19863 19.7235 1 15.5239 1 10.3672C1.00021 5.21064 5.19876 1.00009 10.3662 1ZM10.3662 4.46094C7.11356 4.46102 4.46115 7.10261 4.46094 10.3672C4.46094 13.6319 7.11343 16.2743 10.3662 16.2744C13.6191 16.2744 16.2725 13.6205 16.2725 10.3672C16.2722 7.11409 13.6189 4.46094 10.3662 4.46094Z" fill="#3C3B44"/>
</g>
<defs>
<clipPath id="clip0_4473_346">
<rect width="24" height="24" fill="white"/>
</clipPath>
</defs>
</svg>

<svg xmlns="http://www.w3.org/2000/svg" width="24" height="24" fill="none" viewBox="0 0 24 24"><g clip-path="url(#a)"><path fill="currentColor" fill-rule="evenodd" d="M10.366 1c5.168 0 9.366 4.199 9.366 9.367a9.3 9.3 0 0 1-1.634 5.286l4.391 4.394c.68.68.68 1.776 0 2.445a1.74 1.74 0 0 1-1.222.508c-.439 0-.889-.173-1.223-.508L15.65 18.1a9.3 9.3 0 0 1-5.285 1.635v-.011C5.2 19.724 1 15.524 1 10.367S5.199 1 10.366 1m0 3.46a5.91 5.91 0 0 0-5.905 5.907 5.91 5.91 0 0 0 5.905 5.907 5.92 5.92 0 0 0 5.907-5.907 5.92 5.92 0 0 0-5.907-5.906" clip-rule="evenodd"/></g><defs><clipPath id="a"><path fill="currentColor" d="M0 0h24v24H0z"/></clipPath></defs></svg>
